public/flags/CL.svg

<svg fill="none" height="53" viewBox="0 0 61 53" width="61" xmlns="http://www.w3.org/2000/svg" xmlns:xlink="http://www.w3.org/1999/xlink"><mask id="a" height="43" maskUnits="userSpaceOnUse" width="59" x="1" y="3"><rect fill="#fff" height="41.4393" rx="3.7125" stroke="#fff" stroke-width="1.06071" width="57.9393" x="1.53036" y="3.53036"/></mask><rect fill="#fff" height="41.4393" rx="3.7125" stroke="#f5f5f5" stroke-width="1.06071" width="57.9393" x="1.53036" y="3.53036"/><g mask="url(#a)"><path clip-rule="evenodd" d="m1 45.5h59v-22.6667h-59z" fill="#ea3b2e" fill-rule="evenodd"/><path d="m1 3h19.6667v19.8333h-19.6667z" fill="#0b48c2"/><path clip-rule="evenodd" d="m10.8334 15.1267-3.30279 2.3744 1.21862-3.9015-3.25986-2.434 4.05594-.0369 1.28809-3.8787 1.2881 3.8787 4.0559.0369-3.2598 2.434 1.2186 3.9015z" fill="#fff" fill-rule="evenodd"/></g></svg>

<svg width="61" height="53" viewBox="0 0 61 53" fill="none" xmlns="http://www.w3.org/2000/svg">
<rect x="1.53036" y="3.53036" width="57.9393" height="41.4393" rx="3.7125" fill="white" stroke="#F5F5F5" stroke-width="1.06071"/>
<mask id="mask0" mask-type="alpha" maskUnits="userSpaceOnUse" x="1" y="3" width="59" height="43">
<rect x="1.53036" y="3.53036" width="57.9393" height="41.4393" rx="3.7125" fill="white" stroke="white" stroke-width="1.06071"/>
</mask>
<g mask="url(#mask0)">
<path fill-rule="evenodd" clip-rule="evenodd" d="M1 45.5H60V22.8333H1V45.5Z" fill="#EA3B2E"/>
<rect x="1" y="3" width="19.6667" height="19.8333" fill="#0B48C2"/>
<path fill-rule="evenodd" clip-rule="evenodd" d="M10.8334 15.1267L7.53061 17.5011L8.74923 13.5996L5.48937 11.1656L9.54531 11.1287L10.8334 7.25L12.1215 11.1287L16.1774 11.1656L12.9176 13.5996L14.1362 17.5011L10.8334 15.1267Z" fill="white"/>
</g>
</svg>
